svgs/android_code_studio.svg

<svg width="192" height="192" viewBox="0 0 192 192" fill="none" xmlns="http://www.w3.org/2000/svg">
<path d="M78.1571 142.762L87.0071 158.297C93.9274 170.444 109.254 174.607 121.241 167.593L149.827 150.867C161.813 143.853 165.92 128.32 159 116.172L139.137 81.3041M51.421 71.3675C40.4853 74.0977 32.375 84.1036 32.375 96.0293V136.666C32.375 150.693 43.595 162.064 57.4356 162.064H89.0119M78.1237 49.297L87.0071 33.7032C93.9274 21.5556 109.254 17.3935 121.241 24.4069L155.966 44.7253C167.952 51.7388 172.059 67.272 165.138 79.4197L153.095 100.561M87.5083 31.179L81.1436 27.4548C69.1573 20.4413 53.8304 24.6034 46.9101 36.7511L26.8617 71.9436C20.9311 82.3539 23.099 95.2506 31.3843 103.141" stroke="black" stroke-width="10"/>
<rect x="53.5" y="53" width="86" height="86" rx="25" stroke="black" stroke-width="12"/>
<path d="M86.5 83L73.5 96L86.5 109" stroke="black" stroke-width="10" stroke-linecap="round" stroke-linejoin="round"/>
<path d="M106.5 83L119.5 96L106.5 109" stroke="black" stroke-width="10" stroke-linecap="round" stroke-linejoin="round"/>
</svg>

<svg xmlns="http://www.w3.org/2000/svg" width="192" height="192" fill="none" viewBox="0 0 192 192"><path stroke="#000" stroke-width="10" d="m78.157 142.762 8.85 15.535c6.92 12.147 22.247 16.31 34.234 9.296l28.586-16.726c11.986-7.014 16.093-22.547 9.173-34.695l-19.863-34.868m-87.716-9.936c-10.936 2.73-19.046 12.736-19.046 24.661v40.637c0 14.027 11.22 25.398 25.06 25.398h31.577M78.124 49.297l8.883-15.594c6.92-12.147 22.247-16.31 34.234-9.296l34.725 20.318c11.986 7.014 16.093 22.547 9.172 34.695l-12.043 21.141M87.508 31.179l-6.364-3.724C69.157 20.44 53.83 24.603 46.91 36.75L26.862 71.944c-5.93 10.41-3.763 23.307 4.522 31.197"/><rect width="86" height="86" x="53.5" y="53" stroke="#000" stroke-width="12" rx="25"/><path stroke="#000" stroke-linecap="round" stroke-linejoin="round" stroke-width="10" d="m86.5 83-13 13 13 13m20-26 13 13-13 13"/></svg>
